Sources/FrostedUI/Resources/Icons.xcassets/sparkleFilled16.imageset/sparkle-filled-16.svg

<svg width="16" height="16" viewBox="0 0 16 16" fill="none" xmlns="http://www.w3.org/2000/svg" data-fui-icon="true">
  <path
    d="M11.4999 8C11.2094 8 10.9516 8.18747 10.8622 8.46387L10.2762 10.2764L8.46375 10.8623C8.18738 10.9517 7.99991 11.2095 7.99988 11.5C7.99988 11.7905 8.18735 12.0483 8.46375 12.1377L10.2762 12.7236L10.8622 14.5361C10.9516 14.8125 11.2094 15 11.4999 15C11.7903 14.9999 12.0472 14.8125 12.1366 14.5361L12.7235 12.7236L14.536 12.1377C14.8124 12.0483 14.9999 11.7905 14.9999 11.5C14.9998 11.2095 14.8124 10.9517 14.536 10.8623L12.7235 10.2764L12.1366 8.46387C12.0472 8.18752 11.7903 8.00006 11.4999 8ZM5.72156 1C5.32851 1.00013 4.97997 1.25319 4.85828 1.62695L4.13464 3.85059C4.09083 3.98516 3.98504 4.09095 3.85046 4.13477L1.62683 4.8584C1.25297 4.98012 0.999877 5.32948 0.999878 5.72266C1.00004 6.11568 1.25309 6.46425 1.62683 6.58594L3.85046 7.30957C3.98504 7.35338 4.09083 7.45918 4.13464 7.59375L4.85828 9.81738C4.97997 10.1911 5.32851 10.4442 5.72156 10.4443C6.11474 10.4443 6.46312 10.1912 6.58484 9.81738L7.30945 7.59375C7.35326 7.45918 7.45905 7.35338 7.59363 7.30957L9.81726 6.58594C10.191 6.46425 10.4441 6.11568 10.4442 5.72266C10.4442 5.32948 10.1911 4.98012 9.81726 4.8584L7.59363 4.13477C7.45906 4.09095 7.35326 3.98516 7.30945 3.85059L6.58484 1.62695C6.46307 1.25317 6.11468 1 5.72156 1Z"
    fill="currentColor"
  />
</svg>

<svg xmlns="http://www.w3.org/2000/svg" width="16" height="16" fill="none" data-fui-icon="true" viewBox="0 0 16 16"><path fill="currentColor" d="M11.5 8a.67.67 0 0 0-.638.464l-.586 1.812-1.812.586a.67.67 0 0 0 0 1.276l1.812.586.586 1.812a.67.67 0 0 0 1.275 0l.586-1.812 1.813-.586a.67.67 0 0 0 0-1.276l-1.812-.586-.587-1.812A.67.67 0 0 0 11.5 8M5.722 1a.91.91 0 0 0-.864.627l-.723 2.224a.44.44 0 0 1-.285.284l-2.223.723a.91.91 0 0 0 0 1.728l2.223.724c.135.043.24.15.285.284l.723 2.223a.908.908 0 0 0 1.727 0l.724-2.223a.44.44 0 0 1 .285-.284l2.223-.724a.908.908 0 0 0 0-1.728l-2.223-.723a.44.44 0 0 1-.285-.284l-.724-2.224A.91.91 0 0 0 5.722 1"/></svg>
